NotoEmoji/emoji_u1f47e.svg

<svg enable-background="new 0 0 128 128" viewBox="0 0 128 128" xmlns="http://www.w3.org/2000/svg" xmlns:xlink="http://www.w3.org/1999/xlink"><linearGradient id="a"><stop offset=".5082" stop-color="#b574c3"/><stop offset=".684" stop-color="#b070bf"/><stop offset=".878" stop-color="#a363b2"/><stop offset=".9813" stop-color="#995aa8"/></linearGradient><radialGradient id="b" cx="64.3435" cy="9.4034" gradientUnits="userSpaceOnUse" r="83.0562" xlink:href="#a"/><radialGradient id="c" cx="63.1176" cy="24.1144" gradientUnits="userSpaceOnUse" r="65.2806" xlink:href="#a"/><radialGradient id="d" cx="62.8111" cy="13.0811" gradientUnits="userSpaceOnUse" r="75.0897" xlink:href="#a"/><path d="m30.47 104.24h13.39v13.39h-13.39z" fill="#995aa8"/><path d="m84.04 104.24h13.39v13.39h-13.39z" fill="#995aa8"/><path d="m30.48 10.51h13.39v13.39h-13.39z" fill="#b574c3"/><path d="m84.04 10.51h13.39v13.39h-13.39z" fill="#b574c3"/><path d="m97.46 64.08v-26.78h-13.42v-13.4h-13.39v13.4h-13.39v-13.4h-13.39v13.4h-13.39v26.78h-13.39v13.39h13.39v13.4h13.39v13.38h13.39v-13.38h13.39v13.38h13.39v-13.38h13.42v-13.4h13.37v-13.39zm-40.21 0h-13.39v-13.39h13.39zm26.78 0h-13.39v-13.39h13.39z" fill="url(#b)"/><path d="m110.82 37.29h13.4v26.8h-13.4z" fill="url(#c)"/><path d="m3.7 37.28h13.4v26.8h-13.4z" fill="url(#d)"/></svg>

<?xml version="1.0" encoding="utf-8"?>
<!-- Generator: Adobe Illustrator 25.2.3, SVG Export Plug-In . SVG Version: 6.00 Build 0)  -->
<svg version="1.1" id="Layer_2" xmlns="http://www.w3.org/2000/svg" xmlns:xlink="http://www.w3.org/1999/xlink" x="0px" y="0px"
	 viewBox="0 0 128 128" style="enable-background:new 0 0 128 128;" xml:space="preserve">
<rect x="30.47" y="104.24" style="fill:#995AA8;" width="13.39" height="13.39"/>
<rect x="84.04" y="104.24" style="fill:#995AA8;" width="13.39" height="13.39"/>
<rect x="30.48" y="10.51" style="fill:#B574C3;" width="13.39" height="13.39"/>
<rect x="84.04" y="10.51" style="fill:#B574C3;" width="13.39" height="13.39"/>
<radialGradient id="SVGID_1_" cx="64.3435" cy="9.4034" r="83.0562" gradientUnits="userSpaceOnUse">
	<stop  offset="0.5082" style="stop-color:#B574C3"/>
	<stop  offset="0.684" style="stop-color:#B070BF"/>
	<stop  offset="0.878" style="stop-color:#A363B2"/>
	<stop  offset="0.9813" style="stop-color:#995AA8"/>
</radialGradient>
<path style="fill:url(#SVGID_1_);" d="M97.46,64.08V37.3H84.04v-13.4H70.65v13.4H57.26V23.9H43.87v13.4H30.48v26.78H17.09v13.39
	h13.39v13.4h13.39v13.38h13.39V90.87h13.39v13.38h13.39V90.87h13.42V77.47h13.37V64.08H97.46z M57.25,64.08H43.86V50.69h13.39V64.08
	z M84.03,64.08H70.64V50.69h13.39V64.08z"/>
<radialGradient id="SVGID_2_" cx="63.1176" cy="24.1144" r="65.2806" gradientUnits="userSpaceOnUse">
	<stop  offset="0.5082" style="stop-color:#B574C3"/>
	<stop  offset="0.684" style="stop-color:#B070BF"/>
	<stop  offset="0.878" style="stop-color:#A363B2"/>
	<stop  offset="0.9813" style="stop-color:#995AA8"/>
</radialGradient>
<rect x="110.82" y="37.29" style="fill:url(#SVGID_2_);" width="13.4" height="26.8"/>
<radialGradient id="SVGID_3_" cx="62.8111" cy="13.0811" r="75.0897" gradientUnits="userSpaceOnUse">
	<stop  offset="0.5082" style="stop-color:#B574C3"/>
	<stop  offset="0.684" style="stop-color:#B070BF"/>
	<stop  offset="0.878" style="stop-color:#A363B2"/>
	<stop  offset="0.9813" style="stop-color:#995AA8"/>
</radialGradient>
<rect x="3.7" y="37.28" style="fill:url(#SVGID_3_);" width="13.4" height="26.8"/>
</svg>
